icons/guide_dog_fill.svg

<svg width="48" height="48" viewBox="0 0 48 48" fill="none" xmlns="http://www.w3.org/2000/svg">
<path d="M38.707 8.29289C39.0975 8.68342 39.0975 9.31658 38.707 9.70711L28.4141 20H25.5858L22.0858 23.5H12.8215C12.4996 22.4582 12.2481 21.2819 12.1121 19.9472C11.7803 19.9643 11.411 19.9724 11 19.9724C9.83632 19.9724 8.04049 19.8939 7.5 19.5C6.50002 18.1752 6 15.5278 6 15.5278C6 15.5278 8.78698 14.5769 10 14.147C9.9999 10.9231 14.1677 9.08322 16.286 11.7995C16.8123 11.7973 17.412 11.9665 17.9737 12.3112C18.9896 12.9346 19.3748 15.7471 19.1543 17.0195C20.7592 18.9098 22.8122 19.6856 25.4999 19.9724L25.6026 19.9831L37.2928 8.29289C37.6833 7.90237 38.3165 7.90237 38.707 8.29289Z" fill="black"/>
<path d="M28.2967 20.1175L23.5 24.9142V31.6288C26.2318 31.2642 28.5675 30.6974 31.5 29C33.6376 32.9189 35.4286 34.0455 36.3477 34.6236C36.7186 34.8569 36.9475 35.0009 37 35.203C37.1194 35.6627 37.2457 35.9998 37.3444 36.2632C37.4676 36.592 37.5478 36.806 37.5177 37H37C36.4477 37 36 37.4477 36 38C36 38.5523 36.4477 39 37 39H39C39.5523 39 40 38.5523 40 38V33.4771C40 31.5 37 26.2283 37 26.2283L41.5 32C41.905 32.2531 42.4521 31.7669 42 31C41.8112 30.496 41.605 29.8357 41.3715 29.0883C40.2574 25.5215 38.5241 19.9724 35.1188 19.9724C34.6262 19.9724 33.9173 19.9977 33.0829 20.0275C31.6958 20.077 29.9616 20.1389 28.2967 20.1175Z" fill="black"/>
<path d="M21.4308 31.8714C21.4539 31.869 21.477 31.8665 21.5 31.864V25.5H13.5862C14.3933 27.2528 15.3593 28.5221 16.1083 29.5062C16.247 29.6885 16.3785 29.8613 16.5 30.0253C16.9789 30.672 18.3754 34.8306 16.2949 37H16C15.4477 37 15 37.4477 15 38C15 38.5523 15.4477 39 16 39H19C19.4611 39 19.8494 38.6879 19.965 38.2634C19.9657 38.2633 19.9664 38.2633 19.9671 38.2632C19.972 38.2628 19.9765 38.2616 19.9806 38.2595C20.0233 38.238 20.0196 38.1242 20.0112 37.8676C20.0064 37.7201 20 37.5255 20 37.2741V32.0253C20.3184 31.9905 20.629 31.9573 20.9328 31.9248L20.9399 31.924C21.0582 31.9114 21.1755 31.8989 21.2918 31.8864C21.3383 31.8814 21.3846 31.8764 21.4308 31.8714Z" fill="black"/>
</svg>

<svg
  xmlns="http://www.w3.org/2000/svg"
  width="24"
  height="24"
  viewBox="0 0 24 24"
  fill="none"
  stroke="currentColor"
  stroke-width="2"
  stroke-linecap="round"
  stroke-linejoin="round"
>
  <path d="M38.707 8.293a1 1 0 0 1 0 1.414L28.414 20h-2.828l-3.5 3.5h-9.264a18.3 18.3 0 0 1-.71-3.553q-.497.025-1.112.025c-1.164 0-2.96-.078-3.5-.472-1-1.325-1.5-3.972-1.5-3.972s2.787-.951 4-1.381c0-3.224 4.168-5.064 6.286-2.347.526-.003 1.126.166 1.688.511 1.016.624 1.4 3.436 1.18 4.709 1.605 1.89 3.658 2.666 6.346 2.952l.103.011 11.69-11.69a1 1 0 0 1 1.414 0" />
  <path d="M28.297 20.118 23.5 24.914v6.715c2.732-.365 5.067-.932 8-2.629 2.138 3.919 3.929 5.045 4.848 5.624.37.233.6.377.652.579.12.46.246.797.344 1.06.124.329.204.543.174.737H37a1 1 0 1 0 0 2h2a1 1 0 0 0 1-1v-4.523c0-1.977-3-7.249-3-7.249L41.5 32c.405.253.952-.233.5-1-.189-.504-.395-1.164-.629-1.912-1.114-3.567-2.847-9.116-6.252-9.116-.493 0-1.202.026-2.036.055-1.387.05-3.121.112-4.786.09" />
  <path d="m21.43 31.871.07-.007V25.5h-7.914c.807 1.753 1.773 3.022 2.522 4.006q.209.273.392.52c.479.646 1.875 4.805-.205 6.974H16a1 1 0 1 0 0 2h3a1 1 0 0 0 .965-.737h.002q.008 0 .014-.003c.042-.022.039-.136.03-.392-.005-.148-.011-.343-.011-.594v-5.249l.933-.1.007-.001z" />
</svg>
